src/icons/svg/wechat-menu.svg

<?xml version="1.0" standalone="no"?><!DOCTYPE svg PUBLIC "-//W3C//DTD SVG 1.1//EN" "http://www.w3.org/Graphics/SVG/1.1/DTD/svg11.dtd"><svg t="1550748077052" class="icon" style="" viewBox="0 0 1340 1024" version="1.1" xmlns="http://www.w3.org/2000/svg" p-id="6665" xmlns:xlink="http://www.w3.org/1999/xlink" width="261.71875" height="200"><defs><style type="text/css">@font-face { font-style: normal; font-family: Arial; src: local("Tsentsiu HG"); }
@font-face { font-family: Arial; src: local("Tsentsiu HG"); }
@font-face { font-style: normal; font-family: 宋体; src: local("Tsentsiu HG"); }
@font-face { font-family: 宋体; src: local("Tsentsiu HG"); }
</style></defs><path d="M1142.153846 1024 196.923077 1024c-108.583385 0-196.923077-88.339692-196.923077-196.923077L0 196.923077c0-108.583385 88.339692-196.923077 196.923077-196.923077l945.230769 0c108.583385 0 196.923077 88.339692 196.923077 196.923077l0 630.153846C1339.076923 935.660308 1250.737231 1024 1142.153846 1024zM196.923077 78.769231C131.780923 78.769231 78.769231 131.780923 78.769231 196.923077l0 630.153846c0 65.142154 53.011692 118.153846 118.153846 118.153846l945.230769 0c65.142154 0 118.153846-53.011692 118.153846-118.153846L1260.307692 196.923077c0-65.142154-53.011692-118.153846-118.153846-118.153846L196.923077 78.769231z" p-id="6666"></path><path d="M690.057846 235.086769l-211.692308 0c-21.779692 0-39.384615-17.644308-39.384615-39.384615s17.604923-39.384615 39.384615-39.384615l211.692308 0c21.779692 0 39.384615 17.644308 39.384615 39.384615S711.837538 235.086769 690.057846 235.086769z" p-id="6667"></path><path d="M1035.500308 891.825231 317.44 891.825231c-86.882462 0-157.538462-70.656-157.538462-157.538462L159.901538 313.856c0-86.882462 70.656-157.538462 157.538462-157.538462 21.779692 0 39.384615 17.644308 39.384615 39.384615s-17.604923 39.384615-39.384615 39.384615c-43.441231 0-78.769231 35.328-78.769231 78.769231l0 420.430769c0 43.441231 35.328 78.769231 78.769231 78.769231l718.060308 0c43.441231 0 78.769231-35.328 78.769231-78.769231L1114.269538 313.856c0-21.740308 17.604923-39.384615 39.384615-39.384615s39.384615 17.644308 39.384615 39.384615l0 420.430769C1193.038769 821.129846 1122.382769 891.825231 1035.500308 891.825231z" p-id="6668"></path></svg>

<svg class="icon" viewBox="0 0 1340 1024" xmlns="http://www.w3.org/2000/svg" width="261.719" height="200"><defs><style>@font-face{font-style:normal;font-family:Arial;src:local(&quot;Tsentsiu HG&quot;)}@font-face{font-family:Arial;src:local(&quot;Tsentsiu HG&quot;)}@font-face{font-style:normal;font-family:宋体;src:local(&quot;Tsentsiu HG&quot;)}@font-face{font-family:宋体;src:local(&quot;Tsentsiu HG&quot;)}</style></defs><path d="M1142.154 1024h-945.23C88.34 1024 0 935.66 0 827.077V196.923C0 88.34 88.34 0 196.923 0h945.23c108.584 0 196.924 88.34 196.924 196.923v630.154c0 108.583-88.34 196.923-196.923 196.923zM196.924 78.77c-65.143 0-118.155 53.01-118.155 118.153v630.154c0 65.142 53.012 118.154 118.154 118.154h945.23c65.143 0 118.155-53.012 118.155-118.154V196.923c0-65.142-53.012-118.154-118.154-118.154h-945.23z"/><path d="M690.058 235.087H478.366c-21.78 0-39.385-17.645-39.385-39.385s17.605-39.384 39.385-39.384h211.692c21.78 0 39.384 17.644 39.384 39.384s-17.604 39.385-39.384 39.385z"/><path d="M1035.5 891.825H317.44c-86.882 0-157.538-70.656-157.538-157.538V313.856c0-86.882 70.656-157.538 157.538-157.538 21.78 0 39.385 17.644 39.385 39.384s-17.605 39.385-39.385 39.385c-43.441 0-78.77 35.328-78.77 78.769v420.43c0 43.442 35.329 78.77 78.77 78.77h718.06c43.442 0 78.77-35.328 78.77-78.77v-420.43c0-21.74 17.604-39.385 39.384-39.385s39.385 17.645 39.385 39.385v420.43c0 86.844-70.656 157.54-157.539 157.54z"/></svg>
